flaticon/monuments/ferris-wheel.svg

<svg xmlns="http://www.w3.org/2000/svg" width="32" height="32" viewBox="0 0 24 24">
    <path d="M10.800781 14.398438C10.800781 14.160156 10.640625 14 10.398438 14L9.601562 14C9.359375 14 9.199219 14.160156 9.199219 14.398438 9.199219 14.640625 9.359375 14.800781 9.601562 14.800781L10.398438 14.800781C10.640625 14.800781 10.800781 14.640625 10.800781 14.398438zM8.398438 14.398438C8.398438 14.160156 8.238281 14 8 14L7.199219 14C6.960938 14 6.800781 14.160156 6.800781 14.398438 6.800781 14.640625 6.960938 14.800781 7.199219 14.800781L8 14.800781C8.238281 14.800781 8.398438 14.640625 8.398438 14.398438zM17.199219 14.398438C17.199219 14.160156 17.039062 14 16.800781 14L16 14C15.761719 14 15.601562 14.160156 15.601562 14.398438 15.601562 14.640625 15.761719 14.800781 16 14.800781L16.800781 14.800781C17.039062 14.800781 17.199219 14.640625 17.199219 14.398438zM14.800781 14.398438C14.800781 14.160156 14.640625 14 14.398438 14L13.601562 14C13.359375 14 13.199219 14.160156 13.199219 14.398438 13.199219 14.640625 13.359375 14.800781 13.601562 14.800781L14.398438 14.800781C14.640625 14.800781 14.800781 14.640625 14.800781 14.398438zM8.878906 16.960938L8.320312 17.519531C8.160156 17.679688 8.160156 17.921875 8.320312 18.078125 8.398438 18.160156 8.480469 18.199219 8.601562 18.199219 8.71875 18.199219 8.800781 18.160156 8.878906 18.078125L9.441406 17.519531C9.601562 17.359375 9.601562 17.121094 9.441406 16.960938 9.28125 16.800781 9.039062 16.800781 8.878906 16.960938zM10.601562 15.238281L10.039062 15.800781C9.878906 15.960938 9.878906 16.199219 10.039062 16.359375 10.121094 16.441406 10.199219 16.480469 10.320312 16.480469 10.398438 16.480469 10.519531 16.441406 10.601562 16.359375L11.160156 15.800781C11.320312 15.640625 11.320312 15.398438 11.160156 15.238281 11 15.078125 10.761719 15.078125 10.601562 15.238281zM14.839844 11.960938C14.921875 11.960938 15.039062 11.921875 15.121094 11.839844L15.679688 11.28125C15.839844 11.121094 15.839844 10.878906 15.679688 10.71875 15.519531 10.558594 15.28125 10.558594 15.121094 10.71875L14.558594 11.28125C14.398438 11.441406 14.398438 11.679688 14.558594 11.839844 14.640625 11.921875 14.71875 11.960938 14.839844 11.960938zM13.121094 13.679688C13.238281 13.679688 13.320312 13.640625 13.398438 13.558594L13.960938 13C14.121094 12.839844 14.121094 12.601562 13.960938 12.441406 13.800781 12.28125 13.558594 12.28125 13.398438 12.441406L12.839844 13C12.679688 13.160156 12.679688 13.398438 12.839844 13.558594 12.921875 13.640625 13 13.679688 13.121094 13.679688zM8.878906 11.839844C8.960938 11.921875 9.039062 11.960938 9.160156 11.960938 9.28125 11.960938 9.359375 11.921875 9.441406 11.839844 9.601562 11.679688 9.601562 11.441406 9.441406 11.28125L8.878906 10.71875C8.71875 10.558594 8.480469 10.558594 8.320312 10.71875 8.160156 10.878906 8.160156 11.121094 8.320312 11.28125zM10.601562 13.558594C10.679688 13.640625 10.761719 13.679688 10.878906 13.679688 10.960938 13.679688 11.078125 13.640625 11.160156 13.558594 11.320312 13.398438 11.320312 13.160156 11.160156 13L10.601562 12.441406C10.441406 12.28125 10.199219 12.28125 10.039062 12.441406 9.878906 12.601562 9.878906 12.839844 10.039062 13zM13.398438 15.238281C13.238281 15.078125 13 15.078125 12.839844 15.238281 12.679688 15.398438 12.679688 15.640625 12.839844 15.800781L13.398438 16.359375C13.480469 16.441406 13.558594 16.480469 13.679688 16.480469 13.800781 16.480469 13.921875 16.441406 13.960938 16.359375 14.121094 16.199219 14.121094 15.960938 13.960938 15.800781zM15.121094 16.960938C14.960938 16.800781 14.71875 16.800781 14.558594 16.960938 14.398438 17.121094 14.398438 17.359375 14.558594 17.519531L15.121094 18.078125C15.199219 18.160156 15.28125 18.199219 15.398438 18.199219 15.480469 18.199219 15.601562 18.160156 15.679688 18.078125 15.839844 17.921875 15.839844 17.679688 15.679688 17.519531zM12 9.199219C11.761719 9.199219 11.601562 9.359375 11.601562 9.601562L11.601562 10.398438C11.601562 10.640625 11.761719 10.800781 12 10.800781 12.238281 10.800781 12.398438 10.640625 12.398438 10.398438L12.398438 9.601562C12.398438 9.359375 12.238281 9.199219 12 9.199219zM12 11.601562C11.761719 11.601562 11.601562 11.761719 11.601562 12L11.601562 12.800781C11.601562 13.039062 11.761719 13.199219 12 13.199219 12.238281 13.199219 12.398438 13.039062 12.398438 12.800781L12.398438 12C12.398438 11.761719 12.238281 11.601562 12 11.601562zM12 11.601562"/>
    <path d="M 24 12 C 24 9.832031 23.417969 7.792969 22.398438 6.03125 L 22.398438 6 L 22.382812 6 C 20.296875 2.421875 16.417969 0 12 0 C 7.582031 0 3.703125 2.421875 1.617188 6 L 1.601562 6 L 1.601562 6.03125 C 0.582031 7.792969 0 9.832031 0 12 C 0 12.542969 0.0390625 13.078125 0.109375 13.601562 L 0.078125 13.601562 L 0.144531 13.863281 C 0.898438 18.640625 4.492188 22.5 9.128906 23.648438 L 9.121094 23.679688 L 9.519531 23.761719 C 10.320312 23.921875 11.160156 24 12 24 C 12.839844 24 13.679688 23.921875 14.558594 23.761719 L 14.960938 23.679688 L 14.945312 23.632812 C 18.976562 22.605469 22.207031 19.527344 23.449219 15.585938 L 23.519531 15.480469 C 23.640625 15.039062 23.761719 14.558594 23.839844 14.078125 L 23.921875 13.601562 L 23.890625 13.601562 C 23.960938 13.078125 24 12.542969 24 12 Z M 1.136719 14.722656 C 1.117188 14.617188 1.097656 14.507812 1.078125 14.398438 L 2.398438 14.398438 C 2.398438 14.839844 2.039062 15.199219 1.601562 15.199219 C 1.480469 15.199219 1.363281 15.160156 1.246094 15.121094 C 1.207031 14.992188 1.171875 14.859375 1.136719 14.722656 Z M 1.542969 16 C 1.5625 16 1.582031 16 1.601562 16 C 1.933594 16 2.242188 15.898438 2.496094 15.722656 C 2.738281 17.394531 3.410156 18.929688 4.402344 20.207031 C 3.152344 19.050781 2.164062 17.613281 1.542969 16 Z M 12 23.160156 C 11.347656 23.160156 10.714844 23.085938 10.105469 22.953125 L 10.632812 21.023438 C 11.074219 21.113281 11.53125 21.160156 12 21.160156 C 12.457031 21.160156 12.902344 21.113281 13.335938 21.027344 L 13.859375 22.960938 C 13.257812 23.089844 12.636719 23.160156 12 23.160156 Z M 10.84375 20.25 L 11.601562 17.480469 C 11.679688 17.238281 11.921875 17.199219 12 17.199219 C 12.078125 17.199219 12.28125 17.199219 12.359375 17.441406 L 13.125 20.253906 C 12.761719 20.324219 12.382812 20.359375 12 20.359375 C 11.605469 20.359375 11.21875 20.320312 10.84375 20.25 Z M 13.199219 17.238281 C 13 16.761719 12.558594 16.441406 12.039062 16.441406 C 11.519531 16.441406 11.078125 16.761719 10.878906 17.28125 L 10.117188 20.058594 C 7.722656 19.269531 6 17.019531 6 14.359375 C 6 12.765625 6.617188 11.320312 7.628906 10.246094 C 7.675781 10.226562 7.722656 10.199219 7.761719 10.160156 C 7.800781 10.117188 7.832031 10.070312 7.851562 10.019531 C 8.886719 9.03125 10.277344 8.410156 11.816406 8.363281 C 11.871094 8.386719 11.933594 8.398438 12 8.398438 C 12.066406 8.398438 12.128906 8.386719 12.183594 8.363281 C 13.71875 8.410156 15.109375 9.03125 16.148438 10.019531 C 16.167969 10.070312 16.199219 10.117188 16.238281 10.160156 C 16.285156 10.203125 16.328125 10.234375 16.382812 10.257812 C 17.386719 11.328125 18 12.769531 18 14.359375 C 18 16.992188 16.316406 19.222656 13.964844 20.03125 Z M 17.960938 20.359375 C 17.816406 20.503906 17.800781 20.707031 17.914062 20.863281 C 16.996094 21.699219 15.90625 22.339844 14.699219 22.734375 L 14.175781 20.804688 C 15.042969 20.515625 15.828125 20.050781 16.5 19.460938 L 16.800781 19.761719 C 16.878906 19.839844 16.960938 19.878906 17.078125 19.878906 C 17.199219 19.878906 17.28125 19.839844 17.359375 19.761719 C 17.519531 19.601562 17.519531 19.359375 17.359375 19.199219 L 17.0625 18.902344 C 18.050781 17.800781 18.683594 16.375 18.785156 14.800781 L 19.199219 14.800781 C 19.441406 14.800781 19.601562 14.640625 19.601562 14.398438 C 19.601562 14.160156 19.441406 14 19.199219 14 L 18.789062 14 C 18.707031 12.414062 18.085938 10.972656 17.101562 9.859375 L 17.359375 9.601562 C 17.519531 9.441406 17.519531 9.199219 17.359375 9.039062 C 17.199219 8.878906 16.960938 8.878906 16.800781 9.039062 L 16.542969 9.296875 C 15.433594 8.300781 13.988281 7.664062 12.398438 7.570312 L 12.398438 7.199219 C 12.398438 6.960938 12.238281 6.800781 12 6.800781 C 11.761719 6.800781 11.601562 6.960938 11.601562 7.199219 L 11.601562 7.570312 C 10.011719 7.664062 8.566406 8.300781 7.457031 9.296875 L 7.199219 9.039062 C 7.039062 8.878906 6.800781 8.878906 6.640625 9.039062 C 6.480469 9.199219 6.480469 9.441406 6.640625 9.601562 L 6.898438 9.859375 C 5.914062 10.972656 5.292969 12.414062 5.210938 14 L 4.800781 14 C 4.558594 14 4.398438 14.160156 4.398438 14.398438 C 4.398438 14.640625 4.558594 14.800781 4.800781 14.800781 L 5.214844 14.800781 C 5.316406 16.375 5.949219 17.800781 6.9375 18.902344 L 6.640625 19.199219 C 6.480469 19.359375 6.480469 19.601562 6.640625 19.761719 C 6.71875 19.839844 6.800781 19.878906 6.921875 19.878906 C 7 19.878906 7.121094 19.839844 7.199219 19.761719 L 7.5 19.460938 C 8.191406 20.070312 9.003906 20.542969 9.902344 20.832031 L 9.375 22.757812 C 8.140625 22.367188 7.023438 21.714844 6.085938 20.863281 C 6.199219 20.707031 6.183594 20.503906 6.039062 20.359375 C 5.898438 20.21875 5.691406 20.203125 5.535156 20.3125 C 4.179688 18.84375 3.316406 16.917969 3.210938 14.800781 C 3.445312 14.792969 3.601562 14.636719 3.601562 14.398438 C 3.601562 14.164062 3.445312 14.003906 3.207031 14 C 3.292969 11.871094 4.144531 9.933594 5.492188 8.453125 C 5.570312 8.523438 5.644531 8.558594 5.761719 8.558594 C 5.878906 8.558594 6 8.519531 6.039062 8.441406 C 6.195312 8.285156 6.199219 8.050781 6.050781 7.890625 C 7.527344 6.53125 9.46875 5.667969 11.601562 5.570312 L 11.601562 5.601562 C 11.601562 5.839844 11.761719 6 12 6 C 12.238281 6 12.398438 5.839844 12.398438 5.601562 L 12.398438 5.570312 C 14.53125 5.667969 16.472656 6.53125 17.949219 7.890625 C 17.800781 8.050781 17.804688 8.285156 17.960938 8.441406 C 18.039062 8.519531 18.121094 8.558594 18.238281 8.558594 C 18.316406 8.558594 18.425781 8.523438 18.507812 8.453125 C 19.855469 9.933594 20.707031 11.871094 20.792969 14 C 20.554688 14.003906 20.398438 14.164062 20.398438 14.398438 C 20.398438 14.636719 20.554688 14.792969 20.789062 14.800781 C 20.683594 16.917969 19.820312 18.84375 18.464844 20.3125 C 18.308594 20.203125 18.101562 20.21875 17.960938 20.359375 Z M 11.199219 3.601562 L 12.800781 3.601562 C 12.800781 4.039062 12.441406 4.398438 12 4.398438 C 11.558594 4.398438 11.199219 4.039062 11.199219 3.601562 Z M 19.597656 20.207031 C 20.589844 18.929688 21.261719 17.394531 21.503906 15.722656 C 21.757812 15.898438 22.066406 16 22.398438 16 C 22.417969 16 22.4375 16 22.457031 16 C 21.835938 17.613281 20.847656 19.050781 19.597656 20.207031 Z M 22.863281 14.722656 C 22.828125 14.859375 22.792969 14.992188 22.753906 15.121094 C 22.636719 15.160156 22.519531 15.199219 22.398438 15.199219 C 21.960938 15.199219 21.601562 14.839844 21.601562 14.398438 L 22.921875 14.398438 C 22.902344 14.507812 22.882812 14.617188 22.863281 14.722656 Z M 23.085938 13.601562 L 21.570312 13.601562 C 21.386719 11.273438 20.363281 9.175781 18.804688 7.605469 C 18.804688 7.605469 18.800781 7.601562 18.800781 7.601562 C 18.796875 7.597656 18.796875 7.597656 18.796875 7.597656 C 17.285156 6.078125 15.273438 5.058594 13.035156 4.816406 C 13.378906 4.523438 13.601562 4.085938 13.601562 3.601562 L 13.601562 2.800781 L 10.398438 2.800781 L 10.398438 3.601562 C 10.398438 4.085938 10.621094 4.523438 10.964844 4.816406 C 8.726562 5.058594 6.714844 6.078125 5.203125 7.597656 C 5.203125 7.597656 5.203125 7.597656 5.199219 7.601562 C 5.199219 7.601562 5.195312 7.605469 5.195312 7.605469 C 3.636719 9.175781 2.613281 11.273438 2.429688 13.601562 L 0.914062 13.601562 C 0.839844 13.078125 0.800781 12.542969 0.800781 12 C 0.800781 10.398438 1.140625 8.871094 1.757812 7.488281 C 2.015625 8.027344 2.566406 8.398438 3.199219 8.398438 C 4.078125 8.398438 4.800781 7.679688 4.800781 6.800781 L 4.800781 6 L 2.554688 6 C 4.546875 2.878906 8.042969 0.800781 12 0.800781 C 15.957031 0.800781 19.453125 2.878906 21.445312 6 L 19.199219 6 L 19.199219 6.800781 C 19.199219 7.679688 19.921875 8.398438 20.800781 8.398438 C 21.433594 8.398438 21.984375 8.027344 22.242188 7.488281 C 22.859375 8.871094 23.199219 10.398438 23.199219 12 C 23.199219 12.542969 23.160156 13.078125 23.085938 13.601562 Z M 2.398438 6.800781 L 4 6.800781 C 4 7.238281 3.640625 7.601562 3.199219 7.601562 C 2.761719 7.601562 2.398438 7.238281 2.398438 6.800781 Z M 21.601562 6.800781 C 21.601562 7.238281 21.238281 7.601562 20.800781 7.601562 C 20.359375 7.601562 20 7.238281 20 6.800781 Z M 21.601562 6.800781"/>
</svg>

<svg xmlns="http://www.w3.org/2000/svg" width="32" height="32" viewBox="0 0 24 24">
    <path d="M10.8 14.398c0-.238-.16-.398-.402-.398h-.796c-.243 0-.403.16-.403.398 0 .243.16.403.403.403h.796c.243 0 .403-.16.403-.403zm0 0M8.398 14.398c0-.238-.16-.398-.398-.398h-.8c-.24 0-.4.16-.4.398 0 .243.16.403.4.403H8c.238 0 .398-.16.398-.403zm0 0M17.2 14.398c0-.238-.16-.398-.4-.398H16c-.238 0-.398.16-.398.398 0 .243.16.403.398.403h.8c.24 0 .4-.16.4-.403zm0 0M14.8 14.398c0-.238-.16-.398-.402-.398h-.796c-.243 0-.403.16-.403.398 0 .243.16.403.403.403h.796c.243 0 .403-.16.403-.403zm0 0M8.879 16.96l-.559.56a.385.385 0 0 0 0 .558c.078.082.16.121.282.121.117 0 .199-.039.277-.12l.562-.56a.385.385 0 0 0 0-.558.39.39 0 0 0-.562 0zm0 0M10.602 15.238l-.563.563a.385.385 0 0 0 0 .558c.082.082.16.121.281.121.078 0 .2-.039.282-.12l.558-.56a.39.39 0 0 0 0-.562.385.385 0 0 0-.558 0zm0 0M14.84 11.96c.082 0 .2-.038.281-.12l.559-.559a.39.39 0 0 0 0-.562.385.385 0 0 0-.559 0l-.562.562a.385.385 0 0 0 0 .559c.082.082.16.12.28.12zm0 0M13.121 13.68c.117 0 .2-.04.277-.121l.563-.559a.385.385 0 0 0 0-.559.39.39 0 0 0-.563 0L12.84 13a.385.385 0 0 0 0 .559c.082.082.16.12.281.12zm0 0M8.879 11.84c.082.082.16.12.281.12.121 0 .2-.038.281-.12a.385.385 0 0 0 0-.559l-.562-.562a.385.385 0 0 0-.559 0 .39.39 0 0 0 0 .562zm0 0M10.602 13.559c.078.082.16.12.277.12.082 0 .2-.038.281-.12a.385.385 0 0 0 0-.559l-.558-.559a.39.39 0 0 0-.563 0 .385.385 0 0 0 0 .559zm0 0M13.398 15.238a.385.385 0 0 0-.558 0 .39.39 0 0 0 0 .563l.558.558c.082.082.16.121.282.121.12 0 .242-.039.28-.12a.385.385 0 0 0 0-.56zm0 0M15.121 16.96a.39.39 0 0 0-.562 0 .385.385 0 0 0 0 .56l.562.558c.078.082.16.121.277.121.082 0 .204-.039.282-.12a.385.385 0 0 0 0-.56zm0 0M12 9.2c-.238 0-.398.16-.398.402v.796c0 .243.16.403.398.403.238 0 .398-.16.398-.403v-.796c0-.243-.16-.403-.398-.403zm0 0M12 11.602c-.238 0-.398.16-.398.398v.8c0 .24.16.4.398.4.238 0 .398-.16.398-.4V12c0-.238-.16-.398-.398-.398zm0 0"/>
    <path d="M24 12c0-2.168-.582-4.207-1.602-5.969V6h-.015C20.297 2.422 16.418 0 12 0 7.582 0 3.703 2.422 1.617 6h-.015v.031a11.881 11.881 0 0 0-1.493 7.57H.08l.066.262c.753 4.778 4.347 8.637 8.984 9.785l-.008.032.399.082c.8.16 1.64.238 2.48.238.84 0 1.68-.078 2.559-.238l.402-.082-.016-.047a12.083 12.083 0 0 0 8.504-8.047l.07-.106c.122-.44.243-.921.32-1.402l.083-.476h-.031c.07-.524.109-1.059.109-1.602zM1.137 14.723l-.059-.325h1.32c0 .442-.359.801-.796.801-.122 0-.239-.039-.356-.078a9.75 9.75 0 0 1-.11-.398zM1.543 16h.059c.332 0 .64-.102.894-.277a9.528 9.528 0 0 0 1.906 4.484A11.245 11.245 0 0 1 1.543 16zM12 23.16a8.882 8.882 0 0 1-1.895-.207l.528-1.93a6.848 6.848 0 0 0 2.703.004l.523 1.934a8.86 8.86 0 0 1-1.859.2zm-1.156-2.91l.758-2.77c.078-.242.32-.28.398-.28.078 0 .281 0 .36.241l.765 2.813c-.363.07-.742.105-1.125.105-.395 0-.781-.039-1.156-.109zm2.355-3.012c-.199-.476-.64-.797-1.16-.797-.52 0-.96.32-1.16.84l-.762 2.778A5.995 5.995 0 0 1 6 14.359c0-1.593.617-3.039 1.629-4.113a.408.408 0 0 0 .133-.086c.039-.043.07-.09.09-.14a5.988 5.988 0 0 1 3.964-1.657.466.466 0 0 0 .184.035.466.466 0 0 0 .184-.035 6.004 6.004 0 0 1 3.964 1.657c.02.05.051.097.09.14.047.043.09.074.145.098A5.97 5.97 0 0 1 18 14.359a5.988 5.988 0 0 1-4.035 5.672zm4.762 3.121a.38.38 0 0 0-.047.504 8.852 8.852 0 0 1-3.215 1.871l-.523-1.93a6.775 6.775 0 0 0 2.324-1.343l.3.3c.079.079.16.118.278.118.121 0 .203-.04.281-.117a.39.39 0 0 0 0-.563l-.297-.297a6.78 6.78 0 0 0 1.723-4.101h.414c.242 0 .403-.16.403-.403 0-.238-.16-.398-.403-.398h-.41a6.76 6.76 0 0 0-1.687-4.14l.257-.258a.39.39 0 0 0 0-.563.385.385 0 0 0-.558 0l-.258.258a6.792 6.792 0 0 0-4.145-1.727V7.2c0-.24-.16-.4-.398-.4-.238 0-.398.16-.398.4v.37a6.792 6.792 0 0 0-4.145 1.727l-.258-.258a.385.385 0 0 0-.558 0 .39.39 0 0 0 0 .563l.257.257A6.76 6.76 0 0 0 5.211 14H4.8c-.242 0-.403.16-.403.398 0 .243.16.403.403.403h.414a6.78 6.78 0 0 0 1.723 4.101l-.297.297a.39.39 0 0 0 0 .563c.078.078.16.117.28.117.079 0 .2-.04.278-.117l.301-.301a6.768 6.768 0 0 0 2.402 1.371l-.527 1.926a8.872 8.872 0 0 1-3.29-1.895.38.38 0 0 0-.046-.504.388.388 0 0 0-.504-.047 8.758 8.758 0 0 1-2.324-5.511c.234-.008.39-.164.39-.403 0-.234-.156-.394-.394-.398a8.75 8.75 0 0 1 2.285-5.547c.078.07.153.106.27.106.117 0 .238-.04.277-.118a.39.39 0 0 0 .012-.55 8.777 8.777 0 0 1 5.55-2.32v.03c0 .239.16.399.399.399.238 0 .398-.16.398-.398V5.57a8.777 8.777 0 0 1 5.551 2.32.39.39 0 0 0 .012.551c.078.079.16.118.277.118a.446.446 0 0 0 .27-.106A8.75 8.75 0 0 1 20.793 14c-.238.004-.395.164-.395.398 0 .239.157.395.391.403a8.758 8.758 0 0 1-2.324 5.511.388.388 0 0 0-.504.047zM11.199 3.602h1.602a.801.801 0 0 1-1.602 0zm8.399 16.605a9.528 9.528 0 0 0 1.906-4.484c.254.175.562.277.894.277h.059a11.245 11.245 0 0 1-2.86 4.207zm3.265-5.484a9.75 9.75 0 0 1-.11.398c-.116.04-.233.078-.355.078a.801.801 0 0 1-.796-.8h1.32l-.059.324zm.223-1.121H21.57a9.573 9.573 0 0 0-2.765-5.997l-.004-.003-.004-.004a9.58 9.58 0 0 0-5.762-2.782 1.6 1.6 0 0 0 .567-1.214V2.8h-3.204v.8c0 .485.223.922.567 1.215a9.58 9.58 0 0 0-5.762 2.782l-.004.004-.004.003a9.573 9.573 0 0 0-2.765 5.997H.914A11.408 11.408 0 0 1 .801 12c0-1.602.34-3.129.957-4.512A1.6 1.6 0 0 0 4.8 6.801V6H2.555C4.547 2.879 8.043.8 12 .8S19.453 2.88 21.445 6H19.2v.8a1.6 1.6 0 1 0 3.043.688c.617 1.383.957 2.91.957 4.512 0 .543-.039 1.078-.113 1.602zM2.398 6.8H4c0 .437-.36.8-.8.8a.807.807 0 0 1-.802-.8zm19.204 0c0 .437-.364.8-.801.8a.804.804 0 0 1-.801-.8zm0 0"/>
</svg>
